X: 11264
T: Dusty Windowsills
R: jig
M: 6/8
K: Adorian
|:A2B cBA|eAB cBA|~G3 EGG|DGG EFG|
A2B cBA|~e2d efg|age dBG|ABA A3:|
|:a3 age|dB/^c/d ~g3|g2a gfe|dBA ~G3|
EGG DGG|EFG ABc|Bed BAG|ABA A3:|
|:~A3 g2f|~A3 edB|~G3 e2d|~G3 edB|
~A3 g2f|A3 efg|age dBG|ABA A3:|

